X: 245
T: Ben Bû-yi Vefâ Bekler İken
C: Hacı Ârif Bey
O: Turkey
F: http://compmusic.upf.edu/node/140
N: nihavent--sarki--turkaksagi--ben_buy-i--haci_arif_bey
N: makam= nihavent
N: form= sarki
N: usul= turkaksagi = 5/8
M: 5/8
L: 1/16
K: C _B _e  
Q: 1/4=120
%%MIDI tuningsystem comma53
BABG F6 | ed e^cd2 e2_1/4e2  | f_1/4efb _a2g2 f2 | \
w:  ARANAĞME  |   |   | 
fe ede6  | 
w:   | 
edeb b_aag gf | fe eddc BAG2  | ABAB d4 A2 | 
w:   |   |   | 
BA G^FG4z2  | BABG F6 | ed e^cd2 e2_1/4e2  | \
w:   |  ARANAĞME  |   | 
f_1/4efb _a2g2 f2 | 
w:   | 
fe ede6  | edeb b_aag gf | fe eddc BAG2  | 
w:   |   |   | 
ABAB d4 A2 | BA G^FG4z2  | G4 d6 | A2 BAG4z2  | \
w:   |   |  Ben  bû  |  yi  ve *  fâ   | 
ded^c de^fg ag | 
w:  bek  | 
^fe edd4z2  | d2c2 B2A2 B2 | c2 d2e2 d2^c2  | \
w:  ler_ *  i *  ken   |  sû  |   | 
agg^f gfe2 ed | 
w:  yi  *  çe *  men  | 
d4Ac BAG2  | G4 d6 | A2 BAG4z2  | ded^c de^fg ag | 
w:  den   SAZ  |  Ben  bû  |  yi  ve *  fâ   |  bek  | 
^fe edd4z2  | d2c2 B2A2 B2 | c2 d2e2 d2^c2  | \
w:  ler_ *  i *  ken   |  sû  |   | 
agg^f gfe2 ed | 
w:  yi  *  çe *  men  | 
d4GA Bcd2  | d3c c3/2d/cd cB | f2 fggf edc2  | 
w:  den   SAZ  |  Al *  dım   |  bo yu *  mun   | 
B3/2A/Bc d4 {e}dc | cB BAA4z2  | A2BA G2A2 B2 | \
w:  öl  |  çü *  sü *  nü   |  serv_  | 
c2 dedc BAG2  | 
w:   | 
c2BA BAG2 G^F | G4GA Bcd2  | d3c c3/2d/cd cB | 
w:  i  se *  men  |  den   SAZ  |  Al *  dım   | 
f2 fggf edc2  | B3/2A/Bc d4 {e}dc | cB BAA4z2  | 
w:  bo yu *  mun   |  öl  |  çü *  sü *  nü   | 
A2BA G2A2 B2 | c2 dedc BAG2  | c2BA BAG2 G^F | 
w:  serv_  |   |  i  se *  men  | 
G4cd _1/4efg2  | f3g g4 f2 | g2 agg6  | \
w:  den   SAZ  |  Â *  zâr_  |  ı  he *  zâr_  | 
agf_1/4e defg ag | 
w:  et  | 
f_1/4e edd6  | edc_1/4B c2d2 _1/4e2 | \
w:  se  *  de  *  vaz  |  geç  | 
f2 gbag f_1/4edc  | 
w:   | 
aggf gf_1/4e2 ed | d4cd _1/4efg2  | f3g g4 f2 | \
w:  se  *  de  *  ben  |  den   SAZ  |  Â *  zâr_  | 
g2 agg6  | 
w:  ı  he *  zâr_  | 
agf_1/4e defg ag | f_1/4e edd6  | edc_1/4B c2d2 _1/4e2 | 
w:  et  |  se  *  de  *  vaz  |  geç  | 
f2 gbag f_1/4edc  | aggf gf_1/4e2 ed | \
w:   |  se  *  de  *  ben  | 
d4GA Bcd2  | 
w:  den   SAZ  | 
d3c c3/2d/cd cB | f2 fggf edc2  | B3/2A/Bc d4 {e}dc | 
w:  Al *  dım   |  bo yu *  mun   |  öl  | 
cB BAA4z2  | A2BA G2A2 B2 | c2 dedc BAG2  | \
w:  çü *  sü *  nü   |  serv_  |   | 
c2BA BAG2 G^F | 
w:  i  se *  men  | 
G4GA Bcd2  | d3c c3/2d/cd cB | f2 fggf edc2  | 
w:  den   SAZ  |  Al *  dım   |  bo yu *  mun   | 
B3/2A/Bc d4 {e}dc | cB BAA4z2  | A2BA G2A2 B2 | \
w:  öl  |  çü *  sü *  nü   |  serv_  | 
c2 dedc BAG2  | 
w:   | 
c2BA BAG2 G^F | G8z2  | |


